X:667
T:Going to Donnybrook
R:Jig
O:Ireland
S:O'Neill's 1086
B:O'Neill's 1086
Z:Transcription, chords:Mike Long
M:6/8
L:1/8
K:G
E|\
"G"DGG BGG|"D"AGG GBd|"C"efg dBG|"D"AGA BGE|\
"G"DGG BGG|"D"AGG GBd|"C"efg dBG|"D"AGG G2:|
f|\
"G"gfg efg|"Bm"edB def|"C"gfg eag|"D"fdd d2f|\
"G"gfg efg|"Bm"edB def|"C"gfe dBA|"G"BGG G2||
f|\
"G"gfg efg|"Bm"edB def|"C"gfg eag|"D"fdd d2f|\
"G"gfg efg|"Bm"edB def|"C"gba gfe|dBA BGE|]
